Paco-Server/ear/default/img/ic_unfoldMore.svg

<svg xmlns="http://www.w3.org/2000/svg" width="24" height="24" viewBox="0 0 24 24">
    <path d="M12 5.828l3.172 3.172 1.414-1.414-4.586-4.586-4.586 4.586 1.414 1.414 3.172-3.172zm0 12.344l-3.172-3.172-1.414 1.414 4.586 4.586 4.586-4.586-1.414-1.414-3.172 3.172z"/>
</svg>

<svg xmlns="http://www.w3.org/2000/svg" width="24" height="24" viewBox="0 0 24 24"><path d="M12 5.828L15.172 9l1.414-1.414L12 3 7.414 7.586 8.828 9 12 5.828zm0 12.344L8.828 15l-1.414 1.414L12 21l4.586-4.586L15.172 15 12 18.172z"/></svg>
